src/topics/icons/codecov.svg

<svg height="281" preserveAspectRatio="xMidYMid" viewBox="0 0 256 281" width="256" xmlns="http://www.w3.org/2000/svg"><path d="m218.551006 37.4189601c-24.135229-24.1295165-56.221273-37.4189601-90.453909-37.4189601-70.5604472.04713075-128.00569191 57.5266524-128.05710727 128.121377l-.03998973 21.691571 16.8585269-11.489906c11.4684828-7.813707 24.7507854-11.944075 38.417275-11.944075 4.0789523 0 8.1978944.372761 12.2397133 1.109715 12.7424413 2.320832 24.1652216 8.089351 33.4142748 16.758553 2.119455-4.670229 4.614529-9.209064 7.559486-13.536523 1.208262-1.775259 2.485076-3.483391 3.806166-5.150106-11.652721-9.84033-25.6491264-16.462914-40.9266308-19.245057-5.3257749-.968323-10.7486677-1.458197-16.1201451-1.458197-11.1257137 0-21.9643583 2.040905-32.2902774 6.06987 8.3607096-51.2225576 52.8507105-89.369902 105.2315413-89.4084636 28.391279 0 55.077282 11.0528753 75.147841 31.1177215 16.011602 16.0101733 26.254685 36.0321734 29.788063 58.1165011-10.328776-4.034678-21.211694-6.099862-32.403106-6.144136l-1.568168-.007141c-1.146849.022851-2.285128.04713-3.400555.1114-1.955212.099974-3.897571.277071-5.821362.499871-.574138.062841-1.138279.152818-1.706705.231369-1.378217.185667-2.750722.394185-4.108944.638408-.602703.109972-1.202549.231369-1.799538.351338-1.38393.281356-2.756435.594133-4.114657.936902-.491303.125682-.982605.242795-1.469623.37419-1.715274.464166-3.414837.976892-5.090121 1.538176-.099974.034277-.204233.062841-.304208.09569-3.804737 1.298238-7.492361 2.856409-11.05716 4.648806-.097117.049987-.192807.101402-.292781.15139-1.668143.845497-3.302009 1.74955-4.911596 2.700734-.131395.078552-.265646.158531-.398469.238511-8.419266 5.047275-15.953045 11.519898-22.301415 19.252197-.262789.31849-.524151.635551-.784084.958326-1.376789 1.725271-2.717873 3.489103-3.976122 5.335772-1.069725 1.571025-2.062327 3.174899-3.024937 4.795911-.218515.369905-.434174.744095-.646977 1.116856-.876917 1.526751-1.715273 3.073496-2.496501 4.638808-.044274.089977-.088549.174241-.132823.264218-1.81382 3.663345-3.353425 7.42952-4.63738 11.272819 0 .002856-.001429.004285-.001429.008569v.004285c-3.144906 9.42615-4.670229 19.310754-4.508842 29.312471.004285.397041.004285.794081.018567 1.192551.021423.776943.059985 1.556743.104259 2.33797.034277.621269.074267 1.238254.119969 1.855238.048559.658402.101403 1.318233.168528 1.978064.078552.804079.174241 1.60673.275644 2.410809.062841.511297.118541 1.025451.194236 1.533892.191379 1.338227.40561 2.673599.658402 4.00897 4.338886 22.938394 17.261281 42.937542 36.389225 56.316963l2.446514 1.563884.019995-.048559c10.867209 7.065328 23.33115 11.699852 36.232122 13.450831l1.746694.235653 12.973811-20.821794-4.664517-.12711c-35.897922-.985461-65.100421-31.003465-65.100421-66.917098 0-35.348063 27.624333-64.701952 62.876707-66.828549l2.230855-.085692c14.290615-.361336 28.371284 3.859009 40.323929 11.996919l16.781403 11.421352.035706-21.580172c.027135-34.2183532-13.272306-66.378664-37.448953-90.5538829" fill="#e0225c"/></svg>

<?xml version="1.0" encoding="UTF-8" standalone="no"?>
<svg width="256px" height="281px" viewBox="0 0 256 281" version="1.1" xmlns="http://www.w3.org/2000/svg" xmlns:xlink="http://www.w3.org/1999/xlink" preserveAspectRatio="xMidYMid">
    <g>
        <path d="M218.551006,37.4189601 C194.415777,13.2894436 162.329733,0 128.097097,0 C57.5366498,0.0471307512 0.0914050933,57.5266524 0.0399897283,128.121377 L0,149.812948 L16.8585269,138.323042 C28.3270097,130.509335 41.6093123,126.378967 55.2758019,126.378967 C59.3547542,126.378967 63.4736963,126.751728 67.5155152,127.488682 C80.2579565,129.809514 91.6807368,135.578033 100.92979,144.247235 C103.049245,139.577006 105.544319,135.038171 108.489276,130.710712 C109.697538,128.935453 110.974352,127.227321 112.295442,125.560606 C100.642721,115.720276 86.6463156,109.097692 71.3688112,106.315549 C66.0430363,105.347226 60.6201435,104.857352 55.2486661,104.857352 C44.1229524,104.857352 33.2843078,106.898257 22.9583887,110.927222 C31.3190983,59.7046644 75.8090992,21.55732 128.18993,21.5187584 C156.581209,21.5187584 183.267212,32.5716337 203.337771,52.6364799 C219.349373,68.6466532 229.592456,88.6686533 233.125834,110.752981 C222.797058,106.718303 211.91414,104.653119 200.722728,104.608845 L199.15456,104.601704 C198.007711,104.624555 196.869432,104.648834 195.754005,104.713104 C193.798793,104.813078 191.856434,104.990175 189.932643,105.212975 C189.358505,105.275816 188.794364,105.365793 188.225938,105.444344 C186.847721,105.630011 185.475216,105.838529 184.116994,106.082752 C183.514291,106.192724 182.914445,106.314121 182.317456,106.43409 C180.933526,106.715446 179.561021,107.028223 178.202799,107.370992 C177.711496,107.496674 177.220194,107.613787 176.733176,107.745182 C175.017902,108.209348 173.318339,108.722074 171.643055,109.283358 C171.543081,109.317635 171.438822,109.346199 171.338847,109.379048 C167.53411,110.677286 163.846486,112.235457 160.281687,114.027854 C160.18457,114.077841 160.08888,114.129256 159.988906,114.179244 C158.320763,115.024741 156.686897,115.928794 155.07731,116.879978 C154.945915,116.95853 154.811664,117.038509 154.678841,117.118489 C146.259575,122.165764 138.725796,128.638387 132.377426,136.370686 C132.114637,136.689176 131.853275,137.006237 131.593342,137.329012 C130.216553,139.054283 128.875469,140.818115 127.61722,142.664784 C126.547495,144.235809 125.554893,145.839683 124.592283,147.460695 C124.373768,147.8306 124.158109,148.20479 123.945306,148.577551 C123.068389,150.104302 122.230033,151.651047 121.448805,153.216359 C121.404531,153.306336 121.360256,153.3906 121.315982,153.480577 C119.502162,157.143922 117.962557,160.910097 116.678602,164.753396 C116.678602,164.756252 116.677173,164.757681 116.677173,164.761965 L116.677173,164.76625 C113.532267,174.1924 112.006944,184.077004 112.168331,194.078721 C112.172616,194.475762 112.172616,194.872802 112.186898,195.271272 C112.208321,196.048215 112.246883,196.828015 112.291157,197.609242 C112.325434,198.230511 112.365424,198.847496 112.411126,199.46448 C112.459685,200.122882 112.512529,200.782713 112.579654,201.442544 C112.658206,202.246623 112.753895,203.049274 112.855298,203.853353 C112.918139,204.36465 112.973839,204.878804 113.049534,205.387245 C113.240913,206.725472 113.455144,208.060844 113.707936,209.396215 C118.046822,232.334609 130.969217,252.333757 150.097161,265.713178 L152.543675,267.277062 L152.56367,267.228503 C163.430879,274.293831 175.89482,278.928355 188.795792,280.679334 L190.542486,280.914987 L203.516297,260.093193 L198.85178,259.966083 C162.953858,258.980622 133.751359,228.962618 133.751359,193.048985 C133.751359,157.700922 161.375692,128.347033 196.628066,126.220436 L198.858921,126.134744 C213.149536,125.773408 227.230205,129.993753 239.18285,138.131663 L255.964253,149.553015 L255.999959,127.972843 C256.027094,93.7544898 242.727653,61.594179 218.551006,37.4189601" fill="#E0225C"></path>
    </g>
</svg>
